src/images/goodreads.svg

<svg xmlns="http://www.w3.org/2000/svg" width="375" viewBox="0 0 375 375" height="375" version="1.0"><defs><clipPath id="a"><path d="M 65.15625 0 L 309.65625 0 L 309.65625 375 L 65.15625 375 Z M 65.15625 0"/></clipPath></defs><path fill="#FFF" d="M-37.5 -37.5H412.5V412.5H-37.5z"/><path fill="#FFF" d="M-37.5 -37.5H412.5V412.5H-37.5z"/><path fill="#B88D6F" d="M-37.5 -37.5H412.5V412.5H-37.5z"/><g clip-path="url(#a)"><path fill="#FFF" d="M 187.40625 0 C 150.414062 0 118.871094 15.554688 97.65625 40.316406 C 76.445312 65.074219 65.21875 98.476562 65.21875 134.511719 C 65.21875 170.546875 76.445312 203.949219 97.65625 228.707031 C 118.871094 253.464844 150.414062 269.023438 187.40625 269.023438 C 224.320312 269.023438 255.800781 253.519531 277.011719 228.851562 L 277.011719 269.023438 C 277.011719 290.207031 270.34375 307.859375 257.042969 320.707031 C 243.746094 333.550781 222.953125 342.390625 191.480469 342.390625 C 128.628906 342.390625 105.945312 309.238281 105.945312 277.175781 L 73.363281 277.175781 C 73.363281 326.628906 115.851562 375 191.480469 375 C 229.246094 375 259.367188 363.769531 279.667969 344.160156 C 299.972656 324.546875 309.59375 297.363281 309.59375 269.023438 L 309.59375 8.152344 L 277.011719 8.152344 L 277.011719 40.171875 C 255.800781 15.503906 224.320312 0 187.40625 0 Z M 187.40625 32.609375 C 215.582031 32.609375 236.988281 43.515625 252.429688 61.539062 C 267.875 79.5625 277.011719 105.261719 277.011719 134.511719 C 277.011719 163.757812 267.875 189.457031 252.429688 207.480469 C 236.988281 225.507812 215.582031 236.414062 187.40625 236.414062 C 159.230469 236.414062 137.824219 225.507812 122.382812 207.480469 C 106.9375 189.457031 97.800781 163.757812 97.800781 134.511719 C 97.800781 105.261719 106.9375 79.5625 122.382812 61.539062 C 137.824219 43.515625 159.230469 32.609375 187.40625 32.609375 Z M 187.40625 32.609375"/></g></svg>

<svg xmlns="http://www.w3.org/2000/svg" width="375" height="375" version="1.0"><defs><clipPath id="a"><path d="M65.156 0h244.5v375h-244.5Zm0 0"/></clipPath></defs><path fill="#FFF" d="M-37.5-37.5h450v450h-450z"/><path fill="#FFF" d="M-37.5-37.5h450v450h-450z"/><path fill="#B88D6F" d="M-37.5-37.5h450v450h-450z"/><g clip-path="url(#a)"><path fill="#FFF" d="M187.406 0c-36.992 0-68.535 15.555-89.75 40.316-21.21 24.758-32.437 58.16-32.437 94.196 0 36.035 11.226 69.437 32.437 94.195 21.215 24.758 52.758 40.316 89.75 40.316 36.914 0 68.395-15.503 89.606-40.171v40.171c0 21.184-6.668 38.836-19.969 51.684-13.297 12.844-34.09 21.684-65.563 21.684-62.851 0-85.535-33.153-85.535-65.215H73.363c0 49.453 42.489 97.824 118.117 97.824 37.766 0 67.887-11.23 88.188-30.84 20.305-19.613 29.926-46.797 29.926-75.137V8.153h-32.582v32.019C255.8 15.504 224.32 0 187.406 0Zm0 32.61c28.176 0 49.582 10.906 65.024 28.93 15.445 18.023 24.582 43.722 24.582 72.972 0 29.246-9.137 54.945-24.582 72.968-15.442 18.028-36.848 28.934-65.024 28.934-28.176 0-49.582-10.906-65.023-28.934-15.445-18.023-24.582-43.722-24.582-72.968 0-29.25 9.136-54.95 24.582-72.973 15.441-18.023 36.847-28.93 65.023-28.93Zm0 0"/></g></svg>
